icons/svg/football-helmet.svg

﻿<?xml version="1.0" encoding="utf-8"?>
<!DOCTYPE svg PUBLIC "-//W3C//DTD SVG 1.1//EN" "http://www.w3.org/Graphics/SVG/1.1/DTD/svg11.dtd">
<svg xmlns="http://www.w3.org/2000/svg" xmlns:xlink="http://www.w3.org/1999/xlink" version="1.1" baseProfile="full" width="24" height="24" viewBox="0 0 24.00 24.00" enable-background="new 0 0 24.00 24.00" xml:space="preserve">
	<path fill="#000000" fill-opacity="1" stroke-linejoin="round" d="M 13.5,12C 12.6716,12 12,12.6716 12,13.5C 12,14.3284 12.6716,15 13.5,15C 14.3284,15 15,14.3284 15,13.5C 15,12.6716 14.3284,12 13.5,12 Z M 13.5,3.00001C 18.1944,3.00001 22,6.58173 22,11C 22,12.6211 22,14 21.0935,16C 17,16 16,20 12.5,20C 10.3226,20 9.27396,18.2817 9.04757,15.9989L 8.99999,16L 8.24049,16L 6.95625,20.2994C 6.81046,20.7875 6.32521,21.0813 5.83551,21L 3,21C 2.44771,21 2,20.5523 2,20C 2,19.4477 2.44771,19 3,19L 3,16C 2.44771,16 2,15.5523 2,15C 2,14.4477 2.44771,14 3,14L 6.75059,14L 7.23091,12.392C 6.72044,12.1425 6.12964,12 5.49999,12L 5.07255,12.0222L 5,11C 5,6.58173 8.80557,3.00001 13.5,3.00001 Z M 5,16L 5,19L 5.25707,19L 6.15318,16L 5,16 Z "/>
</svg>

<svg xmlns="http://www.w3.org/2000/svg" version="1.1" baseProfile="full" width="24" height="24" viewBox="0 0 24.00 24.00" xml:space="preserve"><path fill="#000" fill-opacity="1" stroke-linejoin="round" d="M13.5 12c-.828 0-1.5.672-1.5 1.5s.672 1.5 1.5 1.5 1.5-.672 1.5-1.5-.672-1.5-1.5-1.5zm0-9c4.694 0 8.5 3.582 8.5 8 0 1.62 0 3-.907 5C17 16 16 20 12.5 20c-2.177 0-3.226-1.718-3.452-4H8.24l-1.284 4.3c-.146.488-.63.78-1.12.7H3c-.552 0-1-.448-1-1s.448-1 1-1v-3c-.552 0-1-.448-1-1s.448-1 1-1h3.75l.48-1.608C6.72 12.142 6.13 12 5.5 12l-.427.022L5 11c0-4.418 3.806-8 8.5-8zM5 16v3h.257l.896-3H5z"/></svg>
